X: 4
T: Paddy O'Rafferty
R: jig
M: 6/8
L: 1/8
K: Dmaj
dff cee|def gfe|dff cee|dfe dBA|
dff cee|def g3|afd gfe|dfe dBA:|
|:AFA A2f| g3fdB|AFA AFA|dfe dBA|
AFA BGB|efe efg|afd gfe|dfe dBA:|
|:faa eaa|def gfe|fAA eAA|dfe dBA|
faa eaa|def g3|afd gfe|dfe dBA ||
